X:013
L:1/8
M:6/8
K:C
g | ecg ceg | efg a2 g | fdg ecg | dBg G2 g |
ecg ceg | efg a2 g | fdg ecg | dBg c2 :|]

